X:1
T:Am Brünnelein
T:Albert Methfessel
T:Müller von der Werra
T:Am Brünnelein
T:Volksweise
T:CPDL   —   Creative Commons Attribution Non Commercial 3.0
T:CPDL   —   Creative Commons Attribution Non Commercial 3.0
C:Albert Methfessel
Z:Müller von der Werra
Z:CPDL   —   Creative Commons Attribution Non Commercial 3.0
%%score [ ( 1 2 ) ( 3 4 ) ]
L:1/8
Q:1/4=60
M:2/4
K:C
V:1 treble-8 nm="Tenor"
V:2 treble-8 
V:3 bass nm="Bass"
V:4 bass 
V:1
"^Innig"!p! e/f/ | gc cc | d f/>e/ e z/ e/ | de c/d/ c/d/ |!>(! e3!>)!!p! e/f/ | gc cc | %6
w: 1.         War *|hold und jung wie|Rös- lein * zart, war|froh und wohl- * ge- *|mut; sang *|Lie- der auch ganz|
w: 2.    Weiß *|nit, was mir so|wurmt und * brennt im|Her- zen Tag * und *|Nacht; weiß *|nicht, wo- hin ich|
w: 3.       Das *|Brün- ne- lein ist|nun schon * lang vom|Som- mer aus- * ge- *|dorrt, es *|tröp- felt nit, mir|
w: 4.       Wer *|weiß, wird's an- ders|ü- bers * Jahr, wenn|sich er- holt * der *|Born, wenn *|wie- der- kehrt mein|
 d/a/ g/f/ e[Q:1/4=56]"^rit." e/^f/ |!mf! !>!g ^f/e/ fB |!>(! e3!>)!!pp![Q:1/4=60]"^a tempo" e | %9
w: and- * rer * Art, mein *|Schatz war * mir noch|gut! 1\-4. Am|
w: mich * noch * wend',  wenn's *|fort und * fort so|macht! *|
w: ist * gar * bang, es *|red't mit * mir kein|Wort! *|
w: Schwal- * ben- * paar, wenn *|Ro- sen * treibt der|Dorn! *|
 !>!d>c B!p!g | !>!a c/d/ B"^cresc."G | G/f/f e/d/c |!>(! a2!>)! g!f!e | e/g/ e/f/ gc | %14
w: Brün- ne- lein, am|Brün- ne- * lein, da|stan- * den wir _ bei-|sam- men wie|Feu- * er * und wie|
w: |* * * * da|hat * es an- * ge-|fan- gen, mein|Schatz * ist * fort- ge-|
w: |* * * * da|steh' * ich ganz * al-|lei- ne und|wei- * ne, * ach, und|
w: |* * * * will|ich * nicht län- * ger|wei- len, da-|mit * mein * Herz kann|
 !>!d>!>(!e!>)! c!p!c | c3!<(! B/A/!<)! | G2- G/c/ e/a/ |[Q:1/4=60]"^a tempo" g2-!>(! g/e/ d/e/ | %18
w: Flam- * men, am|Brün- ne- *|lein, _ _ am *|Brün- * * ne- *|
w: gan- * gen vom||* * * vom *||
w: wei- * ne, am||* * * am *||
w: hei- * len. O||* * * o *||
 c2!>)! !fermata!z2 |] %19
w: lein.|
w: |
w: |
w: |
V:2
 c/d/ | ec GG | B d/>c/ c x/ c/ | BB cA | B3 c/d/ | ec Ac | c B/d/ cc | BB BB | B3 B | A>A Bd | %10
 cA GG | G/d/d c/B/c | f2 ec | c/e/ c/d/ ec | B2 c G/^G/ | A3 =G/F/ | E2- Ec | e2- e/c/ B/G/ | %18
 G2 x2 |] %19
V:3
!p! G,/F,/ | !>!E,G, G,E, | G,G, G, z/ G,/ | G,^G, A,A, |!>(! ^G,3!>)!!p! =G,/F,/ | E,G, A,G, | %6
 A,B, G,A, |!mf! !>!E, A,/G,/ A,A, |!>(! G,3!>)!!pp! G, | !>!A,>^F, G,!p!B, | %10
 ^F,>F, G,"^cresc."G, | G,G, G,G, |!>(! C2!>)! C!f!G, | G, G,/F,/ E,G, | !>!F,>!>(!G,!>)! E,!p!E, | %15
 F,3!<(! C,!<)! | C,2- C,C | C2-!>(! C/G,/ F,/G,/ | E,2!>)! !fermata!z2 |] %19
V:4
 C, | C,E, E,C, | G,,G,, C, x/ E,/ | G,E, A,F, | E,3 E,/D,/ | C,E, F,E, | F,G, C,A,, | %7
w: |||||||
w: |||||||
w: |||||||
w: |||||||
 B,,B,, B,,^F, | E,3 E, | ^F,>D, G,G,, | D,>D, G,,G, | B,,B,, C,/D,/E, | F,A, CC, | %13
w: ||||||
w: ||||||
w: ||||||
w: ||||||
 C, E,/D,/ C,E, | G,,2 C, z | z F,, F,,F,, | C,2- C, z | z C,/E,/ G,G,, | C,2 x2 |] %19
w: ||am Brün- ne-|lein, _|am * Brün- ne-|lein.|
w: ||vom * *||vom * * *||
w: ||am * *||am * * *||
w: ||O * *||o * * *||

